X:4070
T:Matt People's #1
O:england
R:reel
D:Molloy, Peoples, Brady
M:C|
K:Ador
A2eA BAeA|B2gB BAGB|A2eA BAeA|1 BAGA BAAG:|2 BAGB ~A3e||
|:ae~e2 agef|gB~B2 g2fg|1 ae~e2 aged|B2GA BA~A2:|2 afge fded|B2GA BAAG||
"Variations of 1st part"
A2BA EABA|B2gB BAGB|A2BA EABA|1 BAGB ~A3G:|2 BAGA BAAe||


